src/icons/sass.svg

<svg width="64" height="64" viewBox="0 0 64 64" fill="none" xmlns="http://www.w3.org/2000/svg">
<path fill-rule="evenodd" clip-rule="evenodd" d="M32.0008 0C49.6726 0 64 14.3306 64 32.0008C64 49.671 49.6694 64 32.0008 64C14.3321 64 0 49.6726 0 32.0008C0 14.329 14.3306 0 32.0008 0Z" fill="#CC6699"/>
<path d="M52.0732 13.6966C50.6246 8.01271 41.2007 6.14506 32.2815 9.31336C26.9729 11.1997 21.222 14.1593 17.0957 18.0239C12.1844 22.6174 11.4009 26.6175 11.7233 28.2889C12.862 34.1847 20.9416 38.0384 24.2626 40.8982V40.9154C23.2828 41.3983 16.116 45.0245 14.4383 48.7333C12.6673 52.6493 14.7203 55.4531 16.0786 55.8316C20.2843 57.003 24.6053 54.897 26.9262 51.4343C29.1661 48.0931 28.9792 43.7799 28.0057 41.6335C29.3484 41.2799 30.9138 41.121 32.903 41.3531C38.5106 42.0089 39.6181 45.5136 39.4078 46.9809C39.1975 48.4483 38.0199 49.2536 37.6258 49.4966C37.2317 49.7396 37.1118 49.8253 37.1461 50.006C37.1928 50.2692 37.375 50.2598 37.7115 50.2022C38.1788 50.1243 40.6586 49.009 40.7645 46.308C40.9001 42.8703 37.6056 39.0244 31.7721 39.1256C29.3702 39.1661 27.8592 39.3951 26.7689 39.8016C26.6879 39.7097 26.6053 39.6178 26.5212 39.5275C22.9136 35.6801 16.2484 32.9572 16.5303 27.7858C16.6331 25.9057 17.2873 20.9538 29.3406 14.9475C39.2146 10.0268 47.1198 11.3804 48.4859 14.382C50.4361 18.6687 44.2599 26.6362 33.9996 27.778C30.0929 28.2157 28.0368 26.7016 27.5243 26.1378C26.9854 25.5443 26.9013 25.5147 26.705 25.6284C26.3763 25.8107 26.5851 26.334 26.705 26.6471C27.0165 27.4431 28.2627 28.8559 30.4091 29.56C32.2939 30.183 36.8797 30.5179 42.4281 28.3715C48.6463 25.9695 53.4985 19.284 52.0732 13.6966ZM25.6411 42.66C26.1084 44.3812 26.0555 45.9872 25.5741 47.442C25.5212 47.5978 25.462 47.7629 25.3981 47.9218C25.3342 48.0807 25.2657 48.2333 25.1909 48.3891C24.8068 49.1759 24.3087 49.9018 23.7127 50.5433C21.8544 52.5683 19.2562 53.3394 18.1425 52.6929C16.94 51.9951 17.5412 49.1352 19.7002 46.8563C22.0164 44.4046 25.3529 42.836 25.3529 42.836V42.8251L25.6411 42.66Z" fill="white"/>
</svg>

<svg xmlns="http://www.w3.org/2000/svg" fill="none" viewBox="0 0 64 64"><defs/><path fill="#C69" fill-rule="evenodd" d="M32 0a32 32 0 110 64 32 32 0 010-64z" clip-rule="evenodd"/><path fill="#fff" d="M52.07 13.7C50.62 8 41.2 6.15 32.28 9.3c-5.3 1.89-11.06 4.85-15.18 8.71-4.92 4.6-5.7 8.6-5.38 10.27 1.14 5.9 9.22 9.75 12.54 12.6v.03c-.98.48-8.14 4.1-9.82 7.81-1.77 3.92.28 6.72 1.64 7.1 4.2 1.17 8.53-.93 10.85-4.4 2.24-3.34 2.05-7.65 1.08-9.8a12.9 12.9 0 014.9-.28c5.6.66 6.7 4.16 6.5 5.63a3.7 3.7 0 01-1.78 2.52c-.4.24-.52.33-.48.5.04.27.23.26.56.2.47-.08 2.95-1.2 3.05-3.9.14-3.43-3.15-7.28-8.99-7.17-2.4.04-3.91.27-5 .67l-.25-.27c-3.6-3.85-10.27-6.57-9.99-11.74.1-1.88.76-6.84 12.81-12.84 9.87-4.92 17.78-3.57 19.15-.57 1.95 4.29-4.23 12.26-14.49 13.4-3.9.44-5.96-1.08-6.48-1.64-.53-.6-.62-.63-.82-.51-.32.18-.11.7 0 1.02.32.8 1.56 2.2 3.7 2.91 1.9.62 6.48.96 12.03-1.19 6.22-2.4 11.07-9.09 9.64-14.67zM25.64 42.66a8.17 8.17 0 01-.45 5.73 8.9 8.9 0 01-1.48 2.15c-1.86 2.03-4.45 2.8-5.57 2.15-1.2-.7-.6-3.55 1.56-5.83a21.5 21.5 0 015.65-4.02v-.01l.3-.17z"/></svg>
